**kern	**silbe	**kern	**silbe	**harmony	**phrase	**leadinstrument	**rhyme	**timestamp	**harte
*ICvox	*	*ICvox	*	*M4/4	*	*	*	*	*M4/4
*VRlead	*	*VRharmonize	*	*	*	*	*	*	*
*Hstimme	*	*Nstimme	*	*	*	*	*	*	*
*B-:	*	*B-:	*	*B-:	*	*	*	*	*B-:
*M4/4	*	*M4/4	*	*	*	*	*	*	*
*clefF4	*	*clefGv2	*	*	*	*	*	*	*
r;	.	r;	.	1r;	.	r	.	0	N.C.
r;	.	r;	.	1r;	.	r	.	2.276	N.C.
=1	=1	=1	=1	=1	=1	=1	=1	=1	=1
*>Letter>A	*>Letter>A	*>Letter>A	*>Letter>A	*>Letter>A	*>Letter>A	*>Letter>A	*>Letter>A	*>Letter>A	*>Letter>A
*>Label>Intro	*>Label>Intro	*>Label>Intro	*>Label>Intro	*>Label>Intro	*>Label>Intro	*>Label>Intro	*>Label>Intro	*>Label>Intro	*>Label>Intro
1r	.	1r	.	1FM	newline	synthesizer	.	7.802	F:maj(9)
=2	=2	=2	=2	=2	=2	=2	=2	=2	=2
1r	.	1r	.	1FM	.	synthesizer	.	9.275	F:maj(9)
=3	=3	=3	=3	=3	=3	=3	=3	=3	=3
1r	.	1r	.	1E-m	.	synthesizer	.	10.747	E-:min6(#11)
=4	=4	=4	=4	=4	=4	=4	=4	=4	=4
1r	.	1r	.	1E-m	.	synthesizer	.	12.22	E-:min6(#11)
=5	=5	=5	=5	=5	=5	=5	=5	=5	=5
1r	.	1r	.	1B-M	.	synthesizer	.	13.693	B-:maj
=6	=6	=6	=6	=6	=6	=6	=6	=6	=6
1r	.	1r	.	1B-M	.	synthesizer	.	15.165	B-:maj
=7	=7	=7	=7	=7	=7	=7	=7	=7	=7
1r	.	1r	.	1B-M	.	synthesizer	.	16.638	B-:maj
=8	=8	=8	=8	=8	=8	=8	=8	=8	=8
1r	.	1r	.	1B-M	.	synthesizer	.	18.111	B-:maj
=9	=9	=9	=9	=9	=9	=9	=9	=9	=9
1r	.	1r	.	1FM	newline	synthesizer	.	19.583	F:maj(9)
=10	=10	=10	=10	=10	=10	=10	=10	=10	=10
1r	.	1r	.	1FM	.	synthesizer	.	20.99	F:maj(9)
=11	=11	=11	=11	=11	=11	=11	=11	=11	=11
1r	.	1r	.	1E-MM	.	synthesizer	.	22.397	E-:maj9(13,#11)
=12	=12	=12	=12	=12	=12	=12	=12	=12	=12
1r	.	1r	.	1E-MM	.	synthesizer	.	23.803	E-:maj9(13,#11)
=13	=13	=13	=13	=13	=13	=13	=13	=13	=13
1r	.	1r	.	1B-M	.	synthesizer	.	25.21	B-:maj
=14	=14	=14	=14	=14	=14	=14	=14	=14	=14
1r	.	1r	.	1B-M	.	synthesizer	.	26.617	B-:maj
=15	=15	=15	=15	=15	=15	=15	=15	=15	=15
1r	.	1r	.	1B-M	.	synthesizer	.	28.024	B-:maj
=16	=16	=16	=16	=16	=16	=16	=16	=16	=16
2r	.	1r	.	1B-M	.	synthesizer	.	29.43	B-:maj
4r	.	.	.	.	.	.	.	.	.
8BB-	As	.	.	.	.	.	.	.	.
8BB-	the	.	.	.	.	.	.	.	.
=17	=17	=17	=17	=17	=17	=17	=17	=17	=17
*>Letter>B	*>Letter>B	*>Letter>B	*>Letter>B	*>Letter>B	*>Letter>B	*>Letter>B	*>Letter>B	*>Letter>B	*>Letter>B
*>Label>Verse	*>Label>Verse	*>Label>Verse	*>Label>Verse	*>Label>Verse	*>Label>Verse	*>Label>Verse	*>Label>Verse	*>Label>Verse	*>Label>Verse
4D	sun	1r	.	1B-M	newline	voice	.	30.837	B-:maj
4D	goes	.	.	.	.	.	.	.	.
8C	down	.	.	.	.	.	.	.	.
8BB-	_	.	.	.	.	.	.	.	.
8BB-	on	.	.	.	.	.	.	.	.
8BB-	the	.	.	.	.	.	.	.	.
=18	=18	=18	=18	=18	=18	=18	=18	=18	=18
8D	A-	1r	.	1B-M	.	voice	.	32.238	B-:maj
8D	-ri-	.	.	.	.	.	.	.	.
8C	-zo-	.	.	.	.	.	.	.	.
8D	-na	.	.	.	.	.	.	.	.
8C	plain,	.	.	.	.	.	A	.	.
8BB-	_	.	.	.	.	.	.	.	.
8BB-	and	.	.	.	.	.	.	.	.
8BB-	the	.	.	.	.	.	.	.	.
=19	=19	=19	=19	=19	=19	=19	=19	=19	=19
4D-	wind	1r	.	1E-M	.	voice	.	33.638	E-:sus4(b7,9)
8C	whist-	.	.	.	.	.	.	.	.
8D-	-les	.	.	.	.	.	.	.	.
8C	by	.	.	.	.	.	.	.	.
8BB-	_	.	.	.	.	.	.	.	.
8BB-	like	.	.	.	.	.	.	.	.
8BB-	a	.	.	.	.	.	.	.	.
=20	=20	=20	=20	=20	=20	=20	=20	=20	=20
8D-	run-	1r	.	1E-M	.	voice	.	35.039	E-:sus4(b7,9)
8D-	-a-	.	.	.	.	.	.	.	.
8BB-	-way	.	.	.	.	.	.	.	.
[8D-	train,	.	.	.	.	.	A	.	.
8D-]	_	.	.	.	.	.	.	.	.
8BB-	hey	.	.	.	.	.	A	.	.
8~D-	hey	.	.	.	.	.	A	.	.
8D	hey...	.	.	.	.	.	A	.	.
=21	=21	=21	=21	=21	=21	=21	=21	=21	=21
1r	.	1r	.	1B-M	.	voice	.	36.44	B-:maj
=22	=22	=22	=22	=22	=22	=22	=22	=22	=22
4r	.	1r	.	1B-M	.	voice	.	37.841	B-:maj
8BB-	...it's	.	.	.	.	.	.	.	.
8BB-	a	.	.	.	.	.	.	.	.
8D	beau-	.	.	.	.	.	.	.	.
8~C	-ti-	.	.	.	.	.	.	.	.
8BB-	-ful	.	.	.	.	.	.	.	.
8BB-	thing	.	.	.	.	.	B	.	.
=23	=23	=23	=23	=23	=23	=23	=23	=23	=23
8GG	_	1r	.	1Gmm	.	voice	.	39.242	G:min7
8r	.	.	.	.	.	.	.	.	.
4r	.	.	.	.	.	.	.	.	.
2r	.	.	.	.	.	.	.	.	.
=24	=24	=24	=24	=24	=24	=24	=24	=24	=24
2r	.	1r	.	1A-M	.	voice	.	40.642	A-:maj(9)
8r	.	.	.	.	.	.	.	.	.
[8BB-	Well,	.	.	.	.	.	.	.	.
8BB-]	_	.	.	.	.	.	.	.	.
8BB-	it's	.	.	.	.	.	.	.	.
=25	=25	=25	=25	=25	=25	=25	=25	=25	=25
8D	me	1r	.	1B-M	newline	voice	.	42.043	B-:maj
[8D	and	.	.	.	.	.	.	.	.
8D]	_	.	.	.	.	.	.	.	.
[8D	you	.	.	.	.	.	.	.	.
4D]	_	.	.	.	.	.	.	.	.
8BB-	and	.	.	.	.	.	.	.	.
8BB-	a	.	.	.	.	.	.	.	.
=26	=26	=26	=26	=26	=26	=26	=26	=26	=26
4D-	flat-	1r	.	1B-M	.	voice	.	43.451	B-:maj
4D-	-bed	.	.	.	.	.	.	.	.
8C	truck,	.	.	.	.	.	C	.	.
8BB-	_	.	.	.	.	.	.	.	.
8BB-	and	.	.	.	.	.	.	.	.
8BB-	my	.	.	.	.	.	.	.	.
=27	=27	=27	=27	=27	=27	=27	=27	=27	=27
4D-	heart	1r	.	1E-M	.	voice	.	44.86	E-:sus4(b7,9)
8D-	ki-	.	.	.	.	.	.	.	.
8D-	-cking	.	.	.	.	.	.	.	.
8C	o-	.	.	.	.	.	.	.	.
8BB-	-ver	.	.	.	.	.	.	.	.
8BB-	like	.	.	.	.	.	.	.	.
8BB-	a	.	.	.	.	.	.	.	.
=28	=28	=28	=28	=28	=28	=28	=28	=28	=28
4F	white-	1r	.	1E-M	.	voice	.	46.268	E-:sus4(b7,9)
4E-	-tailed	.	.	.	.	.	.	.	.
8D-	buck,	.	.	.	.	.	C	.	.
8~BB-	huh	.	.	.	.	.	C	.	.
8D-	huh	.	.	.	.	.	C	.	.
8D	huh...	.	.	.	.	.	C	.	.
=29	=29	=29	=29	=29	=29	=29	=29	=29	=29
1r	.	1r	.	1B-M	.	voice	.	47.676	B-:maj
=30	=30	=30	=30	=30	=30	=30	=30	=30	=30
8r	.	1r	.	1B-M	.	voice	.	49.084	B-:maj
8AA-	...n'	.	.	.	.	.	.	.	.
8BB-	in	.	.	.	.	.	.	.	.
8BB-	the	.	.	.	.	.	.	.	.
8D	mid-	.	.	.	.	.	.	.	.
8C	-dle	.	.	.	.	.	.	.	.
8BB-	of	.	.	.	.	.	.	.	.
8BB-	spring	.	.	.	.	.	B	.	.
=31	=31	=31	=31	=31	=31	=31	=31	=31	=31
8GG	_	1r	.	1Gmm	.	voice	.	50.492	G:min7
8r	.	.	.	.	.	.	.	.	.
4r	.	.	.	.	.	.	.	.	.
2r	.	.	.	.	.	.	.	.	.
=32	=32	=32	=32	=32	=32	=32	=32	=32	=32
2r	.	1r	.	1A-M	.	voice	.	51.901	A-:maj(9)
4r	.	.	.	.	.	.	.	.	.
8G	You	.	.	.	.	.	.	.	.
8B-	can	.	.	.	.	.	.	.	.
=33	=33	=33	=33	=33	=33	=33	=33	=33	=33
*>Letter>C	*>Letter>C	*>Letter>C	*>Letter>C	*>Letter>C	*>Letter>C	*>Letter>C	*>Letter>C	*>Letter>C	*>Letter>C
*>Label>Prechorus	*>Label>Prechorus	*>Label>Prechorus	*>Label>Prechorus	*>Label>Prechorus	*>Label>Prechorus	*>Label>Prechorus	*>Label>Prechorus	*>Label>Prechorus	*>Label>Prechorus
8c	cut	1r	.	1Cm	newline	voice	.	53.309	C:sus4(b7)
[8c	me	.	.	.	.	.	.	.	.
8c]	_	.	.	.	.	.	.	.	.
[8c	deep,	.	.	.	.	.	.	.	.
4c]	_	.	.	.	.	.	.	.	.
8c	you	.	.	.	.	.	.	.	.
8B-	can	.	.	.	.	.	.	.	.
=34	=34	=34	=34	=34	=34	=34	=34	=34	=34
8c	cut	1r	.	1CMm	.	voice	.	54.715	C:7
[8c	me	.	.	.	.	.	.	.	.
8c]	_	.	.	.	.	.	.	.	.
[8c	down,	.	.	.	.	.	.	.	.
4c]	_	.	.	.	.	.	.	.	.
8c	you	.	.	.	.	.	.	.	.
8B-	can	.	.	.	.	.	.	.	.
=35	=35	=35	=35	=35	=35	=35	=35	=35	=35
8c	cut	1r	.	1E-M	.	voice	.	56.121	E-:maj6(9)
[8d	me	.	.	.	.	.	.	.	.
8d]	_	.	.	.	.	.	.	.	.
[8B-	loose	.	.	.	.	.	.	.	.
4B-]	_	.	.	.	.	.	.	.	.
4r	.	.	.	.	.	.	.	.	.
=36	=36	=36	=36	=36	=36	=36	=36	=36	=36
4r	.	1r	.	1E-M	.	voice	.	57.527	E-:maj6(9)
8G	Don't	.	.	.	.	.	.	.	.
8F	you	.	.	.	.	.	.	.	.
8~F	know	.	.	.	.	.	.	.	.
8~F	it's	.	.	.	.	.	.	.	.
8~C	o-	.	.	.	.	.	.	.	.
8~F	-kay?	.	.	.	.	.	A	.	.
=37	=37	=37	=37	=37	=37	=37	=37	=37	=37
8~C	_	1r	.	1B-M	.	voice	.	58.933	B-:maj
8~D	_	.	.	.	.	.	.	.	.
4r	.	.	.	.	.	.	.	.	.
2r	.	.	.	.	.	.	.	.	.
=38	=38	=38	=38	=38	=38	=38	=38	=38	=38
2r	.	1r	.	4A-M	.	voice	.	60.339	A-:maj
.	.	.	.	4B-M	.	voice	.	60.691	B-:maj6
8r	.	.	.	2B-M	.	voice	.	61.042	B-:maj
[8F	Hey,	.	.	.	.	.	A	.	.
8F]	_	.	.	.	.	.	.	.	.
8F	hey!	.	.	.	.	.	A	.	.
=39	=39	=39	=39	=39	=39	=39	=39	=39	=39
8C	_	1r	.	1B-M	.	voice	.	61.746	B-:maj
8D	_	.	.	.	.	.	.	.	.
4r	.	.	.	.	.	.	.	.	.
2r	.	.	.	.	.	.	.	.	.
=40	=40	=40	=40	=40	=40	=40	=40	=40	=40
2r	.	1r	.	4A-M	.	voice	.	63.152	A-:maj
.	.	.	.	4B-M	.	voice	.	63.503	B-:maj6
4r	.	.	.	2B-M	.	voice	.	63.855	B-:maj
8G	You	.	.	.	.	.	.	.	.
8B-	can	.	.	.	.	.	.	.	.
=41	=41	=41	=41	=41	=41	=41	=41	=41	=41
8c	kick	1r	.	1Gmm	newline	voice	.	64.558	G:min7(11)
[8c	and	.	.	.	.	.	.	.	.
8c]	_	.	.	.	.	.	.	.	.
[8c	scream,	.	.	.	.	.	.	.	.
4c]	_	.	.	.	.	.	.	.	.
8c	you	.	.	.	.	.	.	.	.
8B-	can	.	.	.	.	.	.	.	.
=42	=42	=42	=42	=42	=42	=42	=42	=42	=42
4c	slap	1r	.	1Gmm	.	voice	.	65.962	G:min7(11)
4c	my	.	.	.	.	.	.	.	.
4c	face,	.	.	.	.	.	D	.	.
4r	.	.	.	.	.	.	.	.	.
=43	=43	=43	=43	=43	=43	=43	=43	=43	=43
4c	set	1r	.	1Cm	.	voice	.	67.366	C:sus4(b7)
4c	my	.	.	.	.	.	.	.	.
8c	whe-	.	.	.	.	.	.	.	.
8c	-els	.	.	.	.	.	.	.	.
8c	on	.	.	.	.	.	.	.	.
8B-	a	.	.	.	.	.	.	.	.
=44	=44	=44	=44	=44	=44	=44	=44	=44	=44
4c	high	1r	.	1CMm	.	voice	.	68.77	C:7
4c	speed	.	.	.	.	.	.	.	.
4c	chase,	.	.	.	.	.	D	.	.
4c	on	.	.	.	.	.	.	.	.
=45	=45	=45	=45	=45	=45	=45	=45	=45	=45
4c	you	1r	.	1E-M	.	voice	E	70.174	E-:maj6(9)
4B-	.	.	.	.	.	.	.	.	.
2r	.	.	.	.	.	.	.	.	.
=46	=46	=46	=46	=46	=46	=46	=46	=46	=46
8r	.	1r	.	1E-M	.	voice	.	71.579	E-:maj6(9)
8B-	no	.	.	.	.	.	.	.	.
8B-	mat-	.	.	.	.	.	.	.	.
8B-	-ter	.	.	.	.	.	.	.	.
4d	what	.	.	.	.	.	.	.	.
8d	you	.	.	.	.	.	.	.	.
8d	do!	.	.	.	.	.	E	.	.
=47	=47	=47	=47	=47	=47	=47	=47	=47	=47
8c	_	1r	.	1FM	.	voice	.	72.983	F:sus4(9)
8r	.	.	.	.	.	.	.	.	.
4r	.	.	.	.	.	.	.	.	.
2r	.	.	.	.	.	.	.	.	.
=48	=48	=48	=48	=48	=48	=48	=48	=48	=48
1r	.	1r	.	1FM	.	voice	.	74.387	F:sus4(9)
=49	=49	=49	=49	=49	=49	=49	=49	=49	=49
*>Letter>A	*>Letter>A	*>Letter>A	*>Letter>A	*>Letter>A	*>Letter>A	*>Letter>A	*>Letter>A	*>Letter>A	*>Letter>A
*>Label>Chorus	*>Label>Chorus	*>Label>Chorus	*>Label>Chorus	*>Label>Chorus	*>Label>Chorus	*>Label>Chorus	*>Label>Chorus	*>Label>Chorus	*>Label>Chorus
2r	.	1r	.	1FM	newline	voice	.	75.791	F:maj(9)
4r	.	.	.	.	.	.	.	.	.
4F	Wild	.	.	.	.	.	.	.	.
=50	=50	=50	=50	=50	=50	=50	=50	=50	=50
4A	hor-	1r	.	1FM	.	voice	.	77.199	F:maj(9)
4B-	-ses	.	.	.	.	.	.	.	.
4c	could	.	.	.	.	.	.	.	.
16cQ	_	.	.	.	.	.	.	.	.
4d	not	.	.	.	.	.	.	.	.
=51	=51	=51	=51	=51	=51	=51	=51	=51	=51
16cQ	_	.	.	.	.	.	.	.	.
4.B-	drag	1r	.	1E-MM	.	voice	.	78.606	E-:maj9(13,#11)
[8B-	me	.	.	.	.	.	.	.	.
4B-]	_	.	.	.	.	.	.	.	.
8B-	a-	.	.	.	.	.	.	.	.
[8B-	-way	.	.	.	.	.	A	.	.
=52	=52	=52	=52	=52	=52	=52	=52	=52	=52
16B-]	_	1r	.	1E-MM	.	voice	.	80.014	E-:maj9(13,#11)
16G	_	.	.	.	.	.	.	.	.
16F	_	.	.	.	.	.	.	.	.
16r	.	.	.	.	.	.	.	.	.
4r	.	.	.	.	.	.	.	.	.
4r	.	.	.	.	.	.	.	.	.
4BB-	from	.	.	.	.	.	.	.	.
=53	=53	=53	=53	=53	=53	=53	=53	=53	=53
16CQ	_	.	.	.	.	.	.	.	.
4D	you.	1r	.	1B-M	.	voice	E	81.421	B-:maj
4r	.	.	.	.	.	.	.	.	.
2r	.	.	.	.	.	.	.	.	.
=54	=54	=54	=54	=54	=54	=54	=54	=54	=54
1r	.	1r	.	1B-M	.	voice	.	82.828	B-:maj
=55	=55	=55	=55	=55	=55	=55	=55	=55	=55
1r	.	1r	.	1B-M	.	voice	.	84.236	B-:maj
=56	=56	=56	=56	=56	=56	=56	=56	=56	=56
1r	.	1r	.	1B-M	.	voice	.	85.643	B-:maj
=57	=57	=57	=57	=57	=57	=57	=57	=57	=57
2r	.	1r	.	1FM	newline	voice	.	87.051	F:maj(9)
4r	.	.	.	.	.	.	.	.	.
16e-Q	_	.	.	.	.	.	.	.	.
4f	Wild	.	.	.	.	.	.	.	.
=58	=58	=58	=58	=58	=58	=58	=58	=58	=58
4c	hor-	1r	.	1FM	.	voice	.	88.457	F:maj(9)
4c	-ses	.	.	.	.	.	.	.	.
4c	could	.	.	.	.	.	.	.	.
16cQ	_	.	.	.	.	.	.	.	.
4d	not	.	.	.	.	.	.	.	.
=59	=59	=59	=59	=59	=59	=59	=59	=59	=59
16cQ	_	.	.	.	.	.	.	.	.
4.B-	drag	1r	.	1E-MM	.	voice	.	89.863	E-:maj9(13,#11)
[8B-	me	.	.	.	.	.	.	.	.
4B-]	_	.	.	.	.	.	.	.	.
8B-	a-	.	.	.	.	.	.	.	.
8B-	-way	.	.	.	.	.	A	.	.
=60	=60	=60	=60	=60	=60	=60	=60	=60	=60
2r	.	1r	.	1E-MM	.	voice	.	91.269	E-:maj9(13,#11)
4r	.	.	.	.	.	.	.	.	.
16cQ	_	.	.	.	.	.	.	.	.
4d	from	.	.	.	.	.	.	.	.
=61	=61	=61	=61	=61	=61	=61	=61	=61	=61
4c	you!	1r	.	1B-M	.	voice	E	92.675	B-:maj
16c	_	.	.	.	.	.	.	.	.
8.B-	_	.	.	.	.	.	.	.	.
2r	.	.	.	.	.	.	.	.	.
=62	=62	=62	=62	=62	=62	=62	=62	=62	=62
1r	.	1r	.	1B-M	.	voice	.	94.081	B-:maj
=63	=63	=63	=63	=63	=63	=63	=63	=63	=63
1r	.	1r	.	1B-M	.	voice	.	95.487	B-:maj
=64	=64	=64	=64	=64	=64	=64	=64	=64	=64
2r	.	1r	.	1B-M	.	voice	.	96.893	B-:maj
8r	.	.	.	.	.	.	.	.	.
8~BB-	As	.	.	.	.	.	.	.	.
4~AA-	the	.	.	.	.	.	.	.	.
=65	=65	=65	=65	=65	=65	=65	=65	=65	=65
*>Letter>B	*>Letter>B	*>Letter>B	*>Letter>B	*>Letter>B	*>Letter>B	*>Letter>B	*>Letter>B	*>Letter>B	*>Letter>B
*>Label>Verse	*>Label>Verse	*>Label>Verse	*>Label>Verse	*>Label>Verse	*>Label>Verse	*>Label>Verse	*>Label>Verse	*>Label>Verse	*>Label>Verse
4D	sky	1r	.	1B-M	newline	voice	.	98.299	B-:maj
4D	falls	.	.	.	.	.	.	.	.
4D	down	.	.	.	.	.	.	.	.
8BB-	from	.	.	.	.	.	.	.	.
8BB-	the	.	.	.	.	.	.	.	.
=66	=66	=66	=66	=66	=66	=66	=66	=66	=66
8D-	mid-	1r	.	1B-M	.	voice	.	99.705	B-:maj
[8D-	-night	.	.	.	.	.	.	.	.
8D-]	_	.	.	.	.	.	.	.	.
[8D-	blue,	.	.	.	.	.	E	.	.
4D-]	_	.	.	.	.	.	.	.	.
4r	.	.	.	.	.	.	.	.	.
=67	=67	=67	=67	=67	=67	=67	=67	=67	=67
8D-	spit-	1r	.	1E-M	.	voice	.	101.111	E-:sus4(b7,9)
8D-	-tin'	.	.	.	.	.	.	.	.
4D-	like	.	.	.	.	.	.	.	.
8D-	bul-	.	.	.	.	.	.	.	.
8BB-	-lets	.	.	.	.	.	.	.	.
8D-	on	.	.	.	.	.	.	.	.
8BB-	a	.	.	.	.	.	.	.	.
=68	=68	=68	=68	=68	=68	=68	=68	=68	=68
*	*	*clefF4	*	*	*	*	*	*	*
4D-	hot	1r	.	1E-M	.	voice	.	102.517	E-:sus4(b7,9)
4D-	tin	.	.	.	.	.	.	.	.
8D-	roof,	.	.	.	.	.	E	.	.
8BB-	a'	.	.	.	.	.	.	.	.
8D-	hey	.	.	.	.	.	.	.	.
[8D	hey	.	.	.	.	.	.	.	.
=69	=69	=69	=69	=69	=69	=69	=69	=69	=69
4D]	.	1r	.	1B-M	.	voice	.	103.923	B-:maj
2r	.	.	.	.	.	.	.	.	.
4r	.	.	.	.	.	.	.	.	.
=70	=70	=70	=70	=70	=70	=70	=70	=70	=70
4r	.	1r	.	1B-M	.	voice	.	105.33	B-:maj
8BB-	...it's	.	.	.	.	.	.	.	.
8BB-	a	.	.	.	.	.	.	.	.
8D	beau-	.	.	.	.	.	.	.	.
8C	-ti-	.	.	.	.	.	.	.	.
8BB-	-ful	.	.	.	.	.	.	.	.
8BB-	sound	.	.	.	.	.	F	.	.
=71	=71	=71	=71	=71	=71	=71	=71	=71	=71
2GG	_	1r	.	1Gmm	.	voice	.	106.736	G:min7
2r	.	.	.	.	.	.	.	.	.
=72	=72	=72	=72	=72	=72	=72	=72	=72	=72
2r	.	2r	.	1A-M	.	voice	.	108.142	A-:maj(9)
8r	.	8r	.	.	.	.	.	.	.
8B-	A'	8F	A'	.	.	.	.	.	.
8B-	well,	8F	well,	.	.	.	.	.	.
8B-	it's	8F	it's	.	.	.	.	.	.
=73	=73	=73	=73	=73	=73	=73	=73	=73	=73
16cQ	_	.	.	.	.	.	.	.	.
8d	me	8A-	me	1B-M	newline	voice	.	109.548	B-:maj
.	.	16GQ	_	.	.	.	.	.	.
[8d	and	[8A-	and	.	.	.	.	.	.
8d]	_	8A-]	_	.	.	.	.	.	.
[8B-	you,	[8F	you,	.	.	.	.	.	.
4B-]	_	4F]	_	.	.	.	.	.	.
8B-	and	8F	and	.	.	.	.	.	.
8B-	a	8F	a	.	.	.	.	.	.
=74	=74	=74	=74	=74	=74	=74	=74	=74	=74
.	.	16GQ	_	.	.	.	.	.	.
4d-	flat-	4A-	flat-	1B-M	.	voice	.	110.948	B-:maj
16d-Q	_	16GQ	_	.	.	.	.	.	.
4d	-bed	4A-	-bed	.	.	.	.	.	.
4B-	truck,	4F	truck,	.	.	.	B	.	.
8B-	in	8F	in	.	.	.	.	.	.
8B-	a	8F	a	.	.	.	.	.	.
=75	=75	=75	=75	=75	=75	=75	=75	=75	=75
.	.	16GQ	_	.	.	.	.	.	.
8d-	foot	8A-	foot	1E-M	.	voice	.	112.348	E-:sus4(b7,9)
8d-	a'	8A-	a'	.	.	.	.	.	.
4c	red	4A-	red	.	.	.	.	.	.
[4B-	mud,	[4F	mud,	.	.	.	.	.	.
8B-]	_	8F]	_	.	.	.	.	.	.
16d-Q	_	16A-Q	_	.	.	.	.	.	.
[8e-	just	[8B-	just	.	.	.	.	.	.
=76	=76	=76	=76	=76	=76	=76	=76	=76	=76
8e-]	_	8B-]	_	1E-M	.	voice	.	113.748	E-:sus4(b7,9)
[8d-	my	[8A-	my	.	.	.	.	.	.
8d-]	_	8A-]	_	.	.	.	.	.	.
[8B-	luck,	[8F	luck!	.	.	.	B	.	.
8B-]	_	8F]	_	.	.	.	.	.	.
8B-	a'	8r	.	.	.	.	.	.	.
8c	hey	4r	.	.	.	.	.	.	.
8d	hey!	.	.	.	.	.	.	.	.
=77	=77	=77	=77	=77	=77	=77	=77	=77	=77
8B-	_	1r	.	1B-M	.	voice	.	115.148	B-:maj
8G	_	.	.	.	.	.	.	.	.
4F	_	.	.	.	.	.	.	.	.
2r	.	.	.	.	.	.	.	.	.
=78	=78	=78	=78	=78	=78	=78	=78	=78	=78
8r	.	1r	.	1B-M	.	voice	.	116.548	B-:maj
8B-	A'	.	.	.	.	.	.	.	.
8d-	hun-	.	.	.	.	.	.	.	.
8B-	-dred	.	.	.	.	.	.	.	.
4d-	miles	.	.	.	.	.	.	.	.
8c	out-	.	.	.	.	.	.	.	.
8B-	-ta	.	.	.	.	.	.	.	.
=79	=79	=79	=79	=79	=79	=79	=79	=79	=79
6B-	town	1r	.	1Gmm	.	voice	F	117.948	G:min7
3G	_	.	.	.	.	.	.	.	.
2r	.	.	.	.	.	.	.	.	.
=80	=80	=80	=80	=80	=80	=80	=80	=80	=80
2r	.	1r	.	1A-M	.	voice	.	119.348	A-:maj(9)
4r	.	.	.	.	.	.	.	.	.
8G	You	.	.	.	.	.	.	.	.
8B-	can	.	.	.	.	.	.	.	.
=81	=81	=81	=81	=81	=81	=81	=81	=81	=81
*>Letter>C	*>Letter>C	*>Letter>C	*>Letter>C	*>Letter>C	*>Letter>C	*>Letter>C	*>Letter>C	*>Letter>C	*>Letter>C
*>Label>Prechorus	*>Label>Prechorus	*>Label>Prechorus	*>Label>Prechorus	*>Label>Prechorus	*>Label>Prechorus	*>Label>Prechorus	*>Label>Prechorus	*>Label>Prechorus	*>Label>Prechorus
8c	call	1r	.	1Cm	newline	voice	.	120.748	C:sus4(b7)
8c	me	.	.	.	.	.	.	.	.
8c	a	.	.	.	.	.	.	.	.
[8c	fool,	.	.	.	.	.	.	.	.
4c]	_	.	.	.	.	.	.	.	.
8c	you	.	.	.	.	.	.	.	.
8B-	can	.	.	.	.	.	.	.	.
=82	=82	=82	=82	=82	=82	=82	=82	=82	=82
8c	call	1r	.	1CMm	.	voice	.	122.162	C:7
[8c	me	.	.	.	.	.	.	.	.
8c]	_	.	.	.	.	.	.	.	.
[8c	blind,	.	.	.	.	.	.	.	.
4c]	_	.	.	.	.	.	.	.	.
8c	you	.	.	.	.	.	.	.	.
8B-	can	.	.	.	.	.	.	.	.
=83	=83	=83	=83	=83	=83	=83	=83	=83	=83
8c	call	1r	.	1E-M	.	voice	.	123.576	E-:maj6(9)
[8d	it	.	.	.	.	.	.	.	.
8d]	_	.	.	.	.	.	.	.	.
[8B-	quits,	.	.	.	.	.	.	.	.
4B-]	_	.	.	.	.	.	.	.	.
4r	.	.	.	.	.	.	.	.	.
=84	=84	=84	=84	=84	=84	=84	=84	=84	=84
8r	.	1r	.	1E-M	.	voice	.	124.991	E-:maj6(9)
8F	can't	.	.	.	.	.	.	.	.
8G	hear	.	.	.	.	.	.	.	.
8F	a	.	.	.	.	.	.	.	.
8A-	word	.	.	.	.	.	.	.	.
8G	that	.	.	.	.	.	.	.	.
8G	you	.	.	.	.	.	.	.	.
8F	say	.	.	.	.	.	A	.	.
=85	=85	=85	=85	=85	=85	=85	=85	=85	=85
8D-	_	1r	.	1B-M	.	voice	.	126.405	B-:maj
8D	_	.	.	.	.	.	.	.	.
4r	.	.	.	.	.	.	.	.	.
2r	.	.	.	.	.	.	.	.	.
=86	=86	=86	=86	=86	=86	=86	=86	=86	=86
2r	.	1r	.	4A-M	.	voice	.	127.819	A-:maj
.	.	.	.	4B-M	.	voice	.	128.172	B-:maj6
8r	.	.	.	2B-M	.	voice	.	128.526	B-:maj
8E	A'	.	.	.	.	.	.	.	.
8F	hey	.	.	.	.	.	A	.	.
8F	_	.	.	.	.	.	.	.	.
=87	=87	=87	=87	=87	=87	=87	=87	=87	=87
2.B-	_	1r	.	1B-M	.	voice	.	129.233	B-:maj
4r	.	.	.	.	.	.	.	.	.
=88	=88	=88	=88	=88	=88	=88	=88	=88	=88
2r	.	1r	.	4A-M	.	voice	.	130.647	A-:maj
.	.	.	.	4B-M	.	voice	.	131.001	B-:maj6
8r	.	.	.	2B-M	.	voice	.	131.354	B-:maj
8E-	'Cause	.	.	.	.	.	.	.	.
8F	if	.	.	.	.	.	.	.	.
8B-	I	.	.	.	.	.	.	.	.
=89	=89	=89	=89	=89	=89	=89	=89	=89	=89
8c	had	1r	.	1Gmm	newline	voice	.	132.061	G:min7(11)
[8c	you	.	.	.	.	.	.	.	.
8c]	_	.	.	.	.	.	.	.	.
[8c	once,	.	.	.	.	.	.	.	.
8c]	_	.	.	.	.	.	.	.	.
8B-	I'm	.	.	.	.	.	.	.	.
8c	gon-	.	.	.	.	.	.	.	.
8B-	-na	.	.	.	.	.	.	.	.
=90	=90	=90	=90	=90	=90	=90	=90	=90	=90
4c	have	1r	.	1Gmm	.	voice	.	133.461	G:min7(11)
4c	you	.	.	.	.	.	.	.	.
4c	twice,	.	.	.	.	.	G	.	.
8r	.	.	.	.	.	.	.	.	.
8F	I	.	.	.	.	.	.	.	.
=91	=91	=91	=91	=91	=91	=91	=91	=91	=91
8c	fol-	1r	.	1Cm	.	voice	.	134.861	C:sus4(b7)
8c	-low	.	.	.	.	.	.	.	.
4c	my	.	.	.	.	.	.	.	.
8c	heart	.	.	.	.	.	.	.	.
8c	in-	.	.	.	.	.	.	.	.
8c	-stead	.	.	.	.	.	.	.	.
8B-	of	.	.	.	.	.	.	.	.
=92	=92	=92	=92	=92	=92	=92	=92	=92	=92
8r	.	1r	.	1CMm	.	voice	.	136.261	C:7
8B-	good	.	.	.	.	.	.	.	.
8B-	ad-	.	.	.	.	.	.	.	.
[8c	-vice,	.	.	.	.	.	G	.	.
8c]	_	.	.	.	.	.	.	.	.
[8c	hey,	.	.	.	.	.	.	.	.
8c]	_	.	.	.	.	.	.	.	.
[8c	you,	.	.	.	.	.	.	.	.
=93	=93	=93	=93	=93	=93	=93	=93	=93	=93
8c]	_	1r	.	1E-M	.	voice	.	137.66	E-:maj6(9)
[8B-	_	.	.	.	.	.	.	.	.
4B-]	_	.	.	.	.	.	.	.	.
2r	.	.	.	.	.	.	.	.	.
=94	=94	=94	=94	=94	=94	=94	=94	=94	=94
8r	.	1r	.	1E-M	.	voice	.	139.06	E-:maj6(9)
8f	no	.	.	.	.	.	.	.	.
8f	mat-	.	.	.	.	.	.	.	.
8f	-ter	.	.	.	.	.	.	.	.
8f	what	.	.	.	.	.	.	.	.
[8f	you	.	.	.	.	.	E	.	.
8f]	_	.	.	.	.	.	.	.	.
[8f	do!	.	.	.	.	.	E	.	.
=95	=95	=95	=95	=95	=95	=95	=95	=95	=95
6f]	_	1r	.	1FM	.	voice	.	140.46	F:sus4(9)
6d	_	.	.	.	.	.	.	.	.
[6c	_	.	.	.	.	.	.	.	.
2c]	_	.	.	.	.	.	.	.	.
=96	=96	=96	=96	=96	=96	=96	=96	=96	=96
1r	.	1r	.	1FM	.	voice	.	141.86	F:sus4(9)
=97	=97	=97	=97	=97	=97	=97	=97	=97	=97
*>Letter>A	*>Letter>A	*>Letter>A	*>Letter>A	*>Letter>A	*>Letter>A	*>Letter>A	*>Letter>A	*>Letter>A	*>Letter>A
*>Label>Chorus	*>Label>Chorus	*>Label>Chorus	*>Label>Chorus	*>Label>Chorus	*>Label>Chorus	*>Label>Chorus	*>Label>Chorus	*>Label>Chorus	*>Label>Chorus
2r	.	2r	.	1FM	newline	voice	.	143.259	F:maj(9)
4r	.	4r	.	.	.	.	.	.	.
4F	Wild	4f	Wild	.	.	.	.	.	.
=98	=98	=98	=98	=98	=98	=98	=98	=98	=98
4A	hor-	4f	hor-	1FM	.	voice	.	144.673	F:maj(9)
4B-	-ses	4f	-ses	.	.	.	.	.	.
4c	could	4f	could	.	.	.	.	.	.
16cQ	_	.	.	.	.	.	.	.	.
4d	not	4g	not	.	.	.	.	.	.
=99	=99	=99	=99	=99	=99	=99	=99	=99	=99
16cQ	_	16dQ	_	.	.	.	.	.	.
4.B-	drag	4.e-	_	1E-MM	.	voice	.	146.087	E-:maj9(13,#11)
[8B-	me	[8e-	me	.	.	.	.	.	.
4B-]	_	4e-]	_	.	.	.	.	.	.
8B-	a-	8e-	a-	.	.	.	.	.	.
[8B-	-way	[8e-	-way	.	.	.	A	.	.
=100	=100	=100	=100	=100	=100	=100	=100	=100	=100
16B-]	_	4e-]	_	1E-MM	.	voice	.	147.501	E-:maj9(13,#11)
16G	_	.	.	.	.	.	.	.	.
16F	_	.	.	.	.	.	.	.	.
16r	.	.	.	.	.	.	.	.	.
4r	.	4r	.	.	.	.	.	.	.
4r	.	2r	.	.	.	.	.	.	.
4BB-	from	.	.	.	.	.	.	.	.
=101	=101	=101	=101	=101	=101	=101	=101	=101	=101
4D	you.	1r	.	1B-M	.	voice	E	148.914	B-:maj
4r	.	.	.	.	.	.	.	.	.
2r	.	.	.	.	.	.	.	.	.
=102	=102	=102	=102	=102	=102	=102	=102	=102	=102
1r	.	1r	.	1B-M	.	voice	.	150.328	B-:maj
=103	=103	=103	=103	=103	=103	=103	=103	=103	=103
1r	.	1r	.	1B-M	.	voice	.	151.742	B-:maj
=104	=104	=104	=104	=104	=104	=104	=104	=104	=104
1r	.	1r	.	1B-M	.	voice	.	153.156	B-:maj
=105	=105	=105	=105	=105	=105	=105	=105	=105	=105
2r	.	2r	.	1FM	newline	voice	.	154.569	F:maj(9)
4r	.	4r	.	.	.	.	.	.	.
16e-Q	_	.	.	.	.	.	.	.	.
4f	Wild	4b-	Wild	.	.	.	.	.	.
=106	=106	=106	=106	=106	=106	=106	=106	=106	=106
4c	hor-	4f	hor-	1FM	.	voice	.	155.964	F:maj(9)
4c	-ses	4f	-ses	.	.	.	.	.	.
4c	could	4f	could	.	.	.	.	.	.
16cQ	_	.	.	.	.	.	.	.	.
4d	not	4g	not	.	.	.	.	.	.
=107	=107	=107	=107	=107	=107	=107	=107	=107	=107
16cQ	_	16dQ	_	.	.	.	.	.	.
4.B-	drag	4.e-	_	1E-MM	.	voice	.	157.36	E-:maj9(13,#11)
[8B-	me	[8e-	me	.	.	.	.	.	.
4B-]	_	4e-]	_	.	.	.	.	.	.
8B-	a-	8e-	a-	.	.	.	.	.	.
8B-	-way	8e-	-way	.	.	.	A	.	.
=108	=108	=108	=108	=108	=108	=108	=108	=108	=108
2r	.	1r	.	1E-MM	.	voice	.	158.755	E-:maj9(13,#11)
4r	.	.	.	.	.	.	.	.	.
[4d	from	.	.	.	.	.	.	.	.
=109	=109	=109	=109	=109	=109	=109	=109	=109	=109
12d]	_	1r	.	1B-M	.	voice	.	160.15	B-:maj
12c	you!	.	.	.	.	.	E	.	.
12B-	_	.	.	.	.	.	.	.	.
4r	.	.	.	.	.	.	.	.	.
2r	.	.	.	.	.	.	.	.	.
=110	=110	=110	=110	=110	=110	=110	=110	=110	=110
4r	.	1r	.	1B-M	.	voice	.	161.545	B-:maj
8r	.	.	.	.	.	.	.	.	.
16FQ	_	.	.	.	.	.	.	.	.
[8G	Ooh	.	.	.	.	.	E	.	.
4.G]	_	.	.	.	.	.	.	.	.
[8F	_	.	.	.	.	.	.	.	.
=111	=111	=111	=111	=111	=111	=111	=111	=111	=111
4.F]	_	1r	.	1B-M	.	voice	.	162.94	B-:maj
8D	_	.	.	.	.	.	.	.	.
8C	_	.	.	.	.	.	.	.	.
8BB-	_	.	.	.	.	.	.	.	.
4r	.	.	.	.	.	.	.	.	.
=112	=112	=112	=112	=112	=112	=112	=112	=112	=112
1r	.	1r	.	1B-M	.	voice	.	164.336	B-:maj
=113	=113	=113	=113	=113	=113	=113	=113	=113	=113
*>Letter>D	*>Letter>D	*>Letter>D	*>Letter>D	*>Letter>D	*>Letter>D	*>Letter>D	*>Letter>D	*>Letter>D	*>Letter>D
*>Label>Solo	*>Label>Solo	*>Label>Solo	*>Label>Solo	*>Label>Solo	*>Label>Solo	*>Label>Solo	*>Label>Solo	*>Label>Solo	*>Label>Solo
1r	.	1r	.	1Gmm	newline	synthesizer	.	165.731	G:min7
=114	=114	=114	=114	=114	=114	=114	=114	=114	=114
1r	.	1r	.	1A-M	.	synthesizer	.	167.155	A-:maj6(9)
=115	=115	=115	=115	=115	=115	=115	=115	=115	=115
1r	.	1r	.	1B-M	.	synthesizer	.	168.579	B-:maj
=116	=116	=116	=116	=116	=116	=116	=116	=116	=116
1r	.	1r	.	1N	.	synthesizer	.	170.003	N.C.
=117	=117	=117	=117	=117	=117	=117	=117	=117	=117
1r	.	1r	.	1Gmm	newline	synthesizer	.	171.427	G:min7
=118	=118	=118	=118	=118	=118	=118	=118	=118	=118
1r	.	1r	.	1A-M	.	synthesizer	.	172.812	A-:maj6(9)
=119	=119	=119	=119	=119	=119	=119	=119	=119	=119
1r	.	1r	.	1B-M	.	synthesizer	.	174.198	B-:maj
=120	=120	=120	=120	=120	=120	=120	=120	=120	=120
1r	.	1r	.	1N	.	synthesizer	.	175.583	N.C.
=121	=121	=121	=121	=121	=121	=121	=121	=121	=121
1r	.	1r	.	1Gmm	newline	synthesizer	.	176.969	G:min7
=122	=122	=122	=122	=122	=122	=122	=122	=122	=122
1r	.	1r	.	1A-M	.	synthesizer	.	178.42	A-:maj6(9)
=123	=123	=123	=123	=123	=123	=123	=123	=123	=123
*>Letter>B	*>Letter>B	*>Letter>B	*>Letter>B	*>Letter>B	*>Letter>B	*>Letter>B	*>Letter>B	*>Letter>B	*>Letter>B
*>Label>Verse	*>Label>Verse	*>Label>Verse	*>Label>Verse	*>Label>Verse	*>Label>Verse	*>Label>Verse	*>Label>Verse	*>Label>Verse	*>Label>Verse
4D-	Sun	1r	.	1B-M	newline	voice	.	179.87	B-:maj
4D-	goes	.	.	.	.	.	.	.	.
16D-Q	_	.	.	.	.	.	.	.	.
4D	down	.	.	.	.	.	.	.	.
8BB-	on	.	.	.	.	.	.	.	.
8BB-	the	.	.	.	.	.	.	.	.
=124	=124	=124	=124	=124	=124	=124	=124	=124	=124
8D-	A-	1r	.	1B-M	.	voice	.	181.271	B-:maj
8D-	-ri-	.	.	.	.	.	.	.	.
8C	-zo-	.	.	.	.	.	.	.	.
8D-	-na	.	.	.	.	.	.	.	.
16C	plain,	.	.	.	.	.	A	.	.
8.BB-	_	.	.	.	.	.	.	.	.
8BB-	and	.	.	.	.	.	.	.	.
8BB-	the	.	.	.	.	.	.	.	.
=125	=125	=125	=125	=125	=125	=125	=125	=125	=125
4D-	wind	1r	.	1E-M	.	voice	.	182.672	E-:sus4(b7,9)
8D-	whis-	.	.	.	.	.	.	.	.
8BB-	-tles	.	.	.	.	.	.	.	.
4D-	by	.	.	.	.	.	.	.	.
8BB-	like	.	.	.	.	.	.	.	.
8BB-	a	.	.	.	.	.	.	.	.
=126	=126	=126	=126	=126	=126	=126	=126	=126	=126
8F	run-	1r	.	1E-M	.	voice	.	184.073	E-:sus4(b7,9)
8F	-a-	.	.	.	.	.	.	.	.
8E-	-way	.	.	.	.	.	.	.	.
16D-	train,	.	.	.	.	.	A	.	.
[16BB-	_	.	.	.	.	.	.	.	.
8BB-]	_	.	.	.	.	.	.	.	.
8BB-	a'	.	.	.	.	.	.	.	.
8C	hey	.	.	.	.	.	A	.	.
8D	hey...	.	.	.	.	.	A	.	.
=127	=127	=127	=127	=127	=127	=127	=127	=127	=127
1r	.	1r	.	1B-M	.	voice	.	185.474	B-:maj
=128	=128	=128	=128	=128	=128	=128	=128	=128	=128
4r	.	1r	.	1B-M	.	voice	.	186.875	B-:maj
8BB-	...it's	.	.	.	.	.	.	.	.
8BB-	a	.	.	.	.	.	.	.	.
8D	beau-	.	.	.	.	.	.	.	.
8C	-ti-	.	.	.	.	.	.	.	.
8BB-	-ful	.	.	.	.	.	.	.	.
8BB-	thing	.	.	.	.	.	B	.	.
=129	=129	=129	=129	=129	=129	=129	=129	=129	=129
2GG	_	1r	.	1Gmm	.	voice	.	188.276	G:min7
2r	.	.	.	.	.	.	.	.	.
=130	=130	=130	=130	=130	=130	=130	=130	=130	=130
1r	.	1r	.	1A-M	.	voice	.	189.677	A-:maj(9)
=131	=131	=131	=131	=131	=131	=131	=131	=131	=131
1r	.	1r	.	1A-M	newline	voice	.	191.078	A-:maj(9)
=132	=132	=132	=132	=132	=132	=132	=132	=132	=132
1r	.	1r	.	1A-M	.	voice	.	192.475	A-:maj(9)
=133	=133	=133	=133	=133	=133	=133	=133	=133	=133
1r	.	1r	.	1A-M	.	voice	.	193.871	A-:maj(9)
=134	=134	=134	=134	=134	=134	=134	=134	=134	=134
*>Letter>A2	*>Letter>A2	*>Letter>A2	*>Letter>A2	*>Letter>A2	*>Letter>A2	*>Letter>A2	*>Letter>A2	*>Letter>A2	*>Letter>A2
*>Label>Chorus	*>Label>Chorus	*>Label>Chorus	*>Label>Chorus	*>Label>Chorus	*>Label>Chorus	*>Label>Chorus	*>Label>Chorus	*>Label>Chorus	*>Label>Chorus
2r	.	2r	.	1FM	newline	voice	.	195.267	F:maj(9)
4r	.	4r	.	.	.	.	.	.	.
.	.	8e-q	_	.	.	.	.	.	.
4F	Wild	4f	Wild	.	.	.	.	.	.
=135	=135	=135	=135	=135	=135	=135	=135	=135	=135
4A	hor-	4f	hor-	1FM	.	voice	.	196.674	F:maj(9)
4B-	-ses	4f	-ses	.	.	.	.	.	.
4c	could	4f	could	.	.	.	.	.	.
8cq	_	.	.	.	.	.	.	.	.
4d	not	4g	not	.	.	.	.	.	.
=136	=136	=136	=136	=136	=136	=136	=136	=136	=136
16cQ	_	16dQ	_	.	.	.	.	.	.
4.B-	drag	4.e-	_	1E-MM	.	voice	.	198.081	E-:maj9(13,#11)
[8B-	me	[8e-	me	.	.	.	.	.	.
4B-]	_	4e-]	_	.	.	.	.	.	.
8B-	a-	8e-	a-	.	.	.	.	.	.
[8B-	-way	[8e-	-way	.	.	.	A	.	.
=137	=137	=137	=137	=137	=137	=137	=137	=137	=137
16B-]	_	4e-]	_	1E-MM	.	voice	.	199.488	E-:maj9(13,#11)
16G	_	.	.	.	.	.	.	.	.
16F	_	.	.	.	.	.	.	.	.
16r	.	.	.	.	.	.	.	.	.
4r	.	4r	.	.	.	.	.	.	.
4r	.	2r	.	.	.	.	.	.	.
4BB-	from	.	.	.	.	.	.	.	.
=138	=138	=138	=138	=138	=138	=138	=138	=138	=138
8Cq	_	.	.	.	.	.	.	.	.
4D	you.	1r	.	1B-M	.	voice	E	200.894	B-:maj
4r	.	.	.	.	.	.	.	.	.
2r	.	.	.	.	.	.	.	.	.
=139	=139	=139	=139	=139	=139	=139	=139	=139	=139
1r	.	1r	.	1B-M	.	voice	.	202.301	B-:maj
=140	=140	=140	=140	=140	=140	=140	=140	=140	=140
1r	.	1r	.	1B-M	.	voice	.	203.708	B-:maj
=141	=141	=141	=141	=141	=141	=141	=141	=141	=141
1r	.	1r	.	1B-M	.	voice	.	205.115	B-:maj
=142	=142	=142	=142	=142	=142	=142	=142	=142	=142
*	*	*clefG2	*	*	*	*	*	*	*
2r	.	2r	.	1FM	newline	voice	.	206.521	F:maj(9)
4r	.	4r	.	.	.	.	.	.	.
8e-q	_	.	.	.	.	.	.	.	.
4f	Wild	4b-	Wild	.	.	.	.	.	.
=143	=143	=143	=143	=143	=143	=143	=143	=143	=143
4c	hor-	4f	hor-	1FM	.	voice	.	207.928	F:maj(9)
4c	-ses	4f	-ses	.	.	.	.	.	.
4c	could	4f	could	.	.	.	.	.	.
8cq	_	.	.	.	.	.	.	.	.
4d	not	4g	not	.	.	.	.	.	.
=144	=144	=144	=144	=144	=144	=144	=144	=144	=144
16cQ	_	16fQ	_	.	.	.	.	.	.
4.B-	drag	4.e-	_	1E-MM	.	voice	.	209.335	E-:maj9(13,#11)
[8B-	me	[8e-	me	.	.	.	.	.	.
4B-]	_	4e-]	_	.	.	.	.	.	.
8B-	a-	8e-	a-	.	.	.	.	.	.
8B-	-way	8e-	-way	.	.	.	A	.	.
=145	=145	=145	=145	=145	=145	=145	=145	=145	=145
2r	.	1r	.	1E-MM	.	voice	.	210.743	E-:maj9(13,#11)
8cq	_	.	.	.	.	.	.	.	.
2d	from	.	.	.	.	.	.	.	.
=146	=146	=146	=146	=146	=146	=146	=146	=146	=146
2B-	you!	1r	.	1Gmm	.	voice	E	212.15	G:min7(11)
2r	.	.	.	.	.	.	.	.	.
=147	=147	=147	=147	=147	=147	=147	=147	=147	=147
2r	.	1r	.	1Gmm	.	voice	.	213.557	G:min7(11)
8r	.	.	.	.	.	.	.	.	.
8F	Ooh	.	.	.	.	.	E	.	.
[4G	_	.	.	.	.	.	.	.	.
=148	=148	=148	=148	=148	=148	=148	=148	=148	=148
8G]	_	1r	.	1Cm	.	voice	.	214.964	C:sus4(b7)
[8F	_	.	.	.	.	.	.	.	.
4F]	_	.	.	.	.	.	.	.	.
2r	.	.	.	.	.	.	.	.	.
=149	=149	=149	=149	=149	=149	=149	=149	=149	=149
1r	.	1r	.	1CMm	.	voice	.	216.371	C:7
=150	=150	=150	=150	=150	=150	=150	=150	=150	=150
2r	.	1r	.	1E-MM	newline	voice	.	217.778	E-:maj9
4r	.	.	.	.	.	.	.	.	.
8e-q	_	.	.	.	.	.	.	.	.
4f	Wild	.	.	.	.	.	.	.	.
=151	=151	=151	=151	=151	=151	=151	=151	=151	=151
4f	hor-	1r	.	1E-MM	.	voice	.	219.186	E-:maj9
4f	-ses	.	.	.	.	.	.	.	.
4f	could	.	.	.	.	.	.	.	.
8fq	_	.	.	.	.	.	.	.	.
4g	not	.	.	.	.	.	.	.	.
=152	=152	=152	=152	=152	=152	=152	=152	=152	=152
8dq	_	.	.	.	.	.	.	.	.
4.c	drag	1r	.	1FM	.	voice	.	220.594	F:sus4(9)
[8c	me	.	.	.	.	.	.	.	.
4c]	_	.	.	.	.	.	.	.	.
8c	a-	.	.	.	.	.	.	.	.
8c	-way	.	.	.	.	.	A	.	.
=153	=153	=153	=153	=153	=153	=153	=153	=153	=153
8B-	_	1r	.	1FM	.	voice	.	222.002	F:sus4(9)
8r	.	.	.	.	.	.	.	.	.
4r	.	.	.	.	.	.	.	.	.
8r	.	.	.	.	.	.	.	.	.
[8d	from	.	.	.	.	.	.	.	.
4d_	_	.	.	.	.	.	.	.	.
=154	=154	=154	=154	=154	=154	=154	=154	=154	=154
4d]	_	2r	.	1A-M	.	voice	.	223.41	A-:maj(9)
8c	you!	.	.	.	.	.	E	.	.
[8B-	_	.	.	.	.	.	.	.	.
2B-_	_	4r	.	.	.	.	.	.	.
.	.	8r	.	.	.	.	.	.	.
.	.	[8f	Ooh	.	.	.	E	.	.
=155	=155	=155	=155	=155	=155	=155	=155	=155	=155
1B-]	_	1f]	_	1A-M	.	voice	.	224.818	A-:maj(9)/3
=156	=156	=156	=156	=156	=156	=156	=156	=156	=156
[1F	_	[1b-	_	1A-M	.	voice	.	226.226	A-:maj(9)/6
=157	=157	=157	=157	=157	=157	=157	=157	=157	=157
1F]	_	2.b-]	_	1A-M	.	voice	.	227.634	A-:maj(9)/6
.	.	4a-	.	.	.	.	.	.	.
=158	=158	=158	=158	=158	=158	=158	=158	=158	=158
*>Letter>A	*>Letter>A	*>Letter>A	*>Letter>A	*>Letter>A	*>Letter>A	*>Letter>A	*>Letter>A	*>Letter>A	*>Letter>A
*>Label>Chorus	*>Label>Chorus	*>Label>Chorus	*>Label>Chorus	*>Label>Chorus	*>Label>Chorus	*>Label>Chorus	*>Label>Chorus	*>Label>Chorus	*>Label>Chorus
1r	.	1r	.	1FM	newline	synthesizer	.	229.042	F:maj(9)
=159	=159	=159	=159	=159	=159	=159	=159	=159	=159
1r	.	1r	.	1FM	.	synthesizer	.	230.446	F:maj(9)
=160	=160	=160	=160	=160	=160	=160	=160	=160	=160
1r	.	1r	.	1E-MM	.	synthesizer	.	231.849	E-:maj9(13,#11)
=161	=161	=161	=161	=161	=161	=161	=161	=161	=161
1r	.	1r	.	1E-MM	.	synthesizer	.	233.252	E-:maj9(13,#11)
=162	=162	=162	=162	=162	=162	=162	=162	=162	=162
1r	.	1r	.	1B-M	.	synthesizer	.	234.656	B-:maj
=163	=163	=163	=163	=163	=163	=163	=163	=163	=163
1r	.	1r	.	1B-M	.	synthesizer	.	236.059	B-:maj
=164	=164	=164	=164	=164	=164	=164	=164	=164	=164
1r	.	1r	.	1B-M	.	synthesizer	.	237.463	B-:maj
=165	=165	=165	=165	=165	=165	=165	=165	=165	=165
1r	.	1r	.	1B-M	.	synthesizer	.	238.866	B-:maj
=166	=166	=166	=166	=166	=166	=166	=166	=166	=166
2r	.	2r	.	1FM	newline	synthesizer	.	240.269	F:maj(9)
8r	.	8r	.	.	.	.	.	.	.
8e-q	_	8aq	_	.	.	.	.	.	.
4.f	Wild	4.b-	Wild	.	.	.	.	.	.
=167	=167	=167	=167	=167	=167	=167	=167	=167	=167
4c	hor-	4f 4g	hor-	1FM	.	synthesizer	.	241.678	F:maj(9)
4c	-ses	2.f	-ses...	.	.	.	.	.	.
4F	could-	.	.	.	.	.	.	.	.
4F	-n't	.	.	.	.	.	.	.	.
=168	=168	=168	=168	=168	=168	=168	=168	=168	=168
4.G	drag	1r	.	1E-MM	.	synthesizer	.	243.087	E-:maj9(13,#11)
[8B-	me	.	.	.	.	.	.	.	.
4B-]	_	.	.	.	.	.	.	.	.
8c	a-	.	.	.	.	.	.	.	.
8d-	-way	.	.	.	.	.	A	.	.
=169	=169	=169	=169	=169	=169	=169	=169	=169	=169
8c	_	1r	.	1E-MM	.	synthesizer	.	244.496	E-:maj9(13,#11)
[8B-	_	.	.	.	.	.	.	.	.
4B-_	_	.	.	.	.	.	.	.	.
4B-]	_	.	.	.	.	.	.	.	.
4F	from	.	.	.	.	.	.	.	.
=170	=170	=170	=170	=170	=170	=170	=170	=170	=170
4G	you!	1r	.	1B-M	.	synthesizer	E	245.905	B-:maj
4r	.	.	.	.	.	.	.	.	.
2r	.	.	.	.	.	.	.	.	.
=171	=171	=171	=171	=171	=171	=171	=171	=171	=171
1r	.	1r	.	1B-M	.	synthesizer	.	247.313	B-:maj
=172	=172	=172	=172	=172	=172	=172	=172	=172	=172
1r	.	1r	.	1B-M	.	synthesizer	.	248.722	B-:maj
=173	=173	=173	=173	=173	=173	=173	=173	=173	=173
1r	.	1r	.	1B-M	.	synthesizer	.	250.131	B-:maj
=174	=174	=174	=174	=174	=174	=174	=174	=174	=174
1r	.	1r	.	1FM	newline	synthesizer	.	251.54	F:maj(9)
=175	=175	=175	=175	=175	=175	=175	=175	=175	=175
2r	.	1r	.	1FM	.	synthesizer	.	252.942	F:maj(9)
4d	Could	.	.	.	.	.	.	.	.
4d	not	.	.	.	.	.	.	.	.
=176	=176	=176	=176	=176	=176	=176	=176	=176	=176
16cQ	_	.	.	.	.	.	.	.	.
4.B-	_	1r	.	1E-MM	.	synthesizer	.	254.343	E-:maj9(13,#11)
[8B-	me	.	.	.	.	.	.	.	.
4B-]	_	.	.	.	.	.	.	.	.
8B-	a-	.	.	.	.	.	.	.	.
8B-	-way	.	.	.	.	.	A	.	.
=177	=177	=177	=177	=177	=177	=177	=177	=177	=177
2r	.	1r	.	1E-MM	.	synthesizer	.	255.745	E-:maj9(13,#11)
8r	.	.	.	.	.	.	.	.	.
4.B-	from	.	.	.	.	.	.	.	.
=178	=178	=178	=178	=178	=178	=178	=178	=178	=178
8B-	you!	1r	.	1B-M	.	synthesizer	E	257.146	B-:maj
[8f	_	.	.	.	.	.	.	.	.
2.f]	_	.	.	.	.	.	.	.	.
=179	=179	=179	=179	=179	=179	=179	=179	=179	=179
1r	.	1r	.	1B-M	.	synthesizer	.	258.548	B-:maj
=180	=180	=180	=180	=180	=180	=180	=180	=180	=180
1r	.	1r	.	1B-M	.	synthesizer	.	259.949	B-:maj
=181	=181	=181	=181	=181	=181	=181	=181	=181	=181
1r	.	1r	.	1B-M	.	synthesizer	.	261.351	B-:maj
=182	=182	=182	=182	=182	=182	=182	=182	=182	=182
*>Label>>Fadeout	*>Label>>Fadeout	*>Label>>Fadeout	*>Label>>Fadeout	*>Label>>Fadeout	*>Label>>Fadeout	*>Label>>Fadeout	*>Label>>Fadeout	*>Label>>Fadeout	*>Label>>Fadeout
1r	.	1r	.	1FM	newline	synthesizer	.	262.753	F:maj(9)
=183	=183	=183	=183	=183	=183	=183	=183	=183	=183
1r	.	1r	.	1FM	.	synthesizer	.	264.161	F:maj(9)
*-	*-	*-	*-	*-	*-	*-	*-	*-	*-
!!!BillboardChartDate: 1987/05/16
!!!BillboardPeak: 55
!!!BillboardWeeksOnChart: 15
!!!COC: Gino Vannelli
!!!ENC: Nathaniel Condit-Schultz
!!!EST: Awating manual error checking and editing.
!!!OTL: Wild Horses
!!!RDF**chordsym: original McGill chord annotation + (implied pitch class set, with bass pitch in first position)
!!!RDF**harmony: **recip + pitch class of root + harmonic quality
!!!RDF**leadinstrument: original McGill primary instrumentation annotation
!!!RDF**phrase: newline = linebreak in original McGill transcription
!!!RDF**timestamp: McGill audio timestamp in seconds
!!!RDT: 2017/01/12/
!!!SampleActualRank: 72
!!!SampleID#: 0407
!!!SampleTargetRank: 71
